X: 0046
T: 595. POLSKA
T: Lasses Margits polska, efter Gambt Berg
O: efter Anders S\"odersten
%R: waltz
B: Paul B\"ackstr\"om's "L\aatar fr\aan Dalarna" collection" 1974
Z: 2022 John Chambers <jc:trillian.mit.edu>
M: 3/4
L: 1/16
Q: 1/4=120
K: Gm
% - - - - - - - - - -
|:\
{^F}vG3(A- B2{cB}A2) G2G2 | A2(Ac) .c.d.c.A B4 | (A^F3) G2G2 .g.a.g.^f | (^fd3) [d8D8] :|
|: ["bis" {^c}vd2=e2 .f.g.f.e f2A2- | A2c2 .c.d.c.A B4 :| A2^F2 G2G2 .g.a.g.^f |
.^f2.d2 [d8D8] | {de}d3c c2{dc}A2 {A}B2B2{cB}y | .A.^F.A.F [G8G,8] :|
P: F\"orsta satsens f\"orsta takter spelades \"aven s\aa h\"ar:
y12 | G2G2 B2G2 G2G2 | A2A2 c2A2 B4 | y12 y12 y12
% - - - - - - - - - -
%%text Jmf. S.L. nr 530. Kallas S\"oderstens minne.
N: The 2nd repeat (bars 5,6) has an "ending" bracket above with "bis" in the center.
N: It's not clear what this means, since those two bars also have repeat symbols at both ends.
